X: 4
T: Wild Swans At Coole, The
C: Ed Reavy
Z: Erik-Fiddler
S: https://thesession.org/tunes/295#setting51886
R: reel
M: 4/4
L: 1/8
K: Dmix
B|Ad^ce d2 AB|cBcG EcGE|DA, (3A,/A,/A,/A, CA, (3A,/A,/A,/A,|=FEDB, CB,G,B,|
A,/B,/A, =FE FEDC|A,/B,/C DE FGA^c|defg ag f/g/a|ge^ce d3 ^c|
Ad^ce d2 AB|cBcG EcGE| DA, (3A,/A,/A,/A, CA, (3A,/A,/A,/A, |=FEDB, CA,G,B,|
A,2 =FE FEDC|A,/B,/C DE FGAg |ecde cAGE|cAGE EDDd||
|:(3d/d/d/d Ad fadf|ec (3c/c/c/c acgc|~d2 Ad f/g/a df|ed^ce defg|
a^gab a=gfa|gefd ^c/d/e AB|cBcd e/f/g ed|1^cAGE D3 d:|2^cAGE [A,3D3]||

%-------------------- TUNE SEPARATOR --------------------%

